twotone/svg/blur_circular.svg

<svg xmlns="http://www.w3.org/2000/svg" width="24" height="24"><path fill="none" d="M0 0h24v24H0V0z"/><g fill="currentColor"><path d="M14 7.5c.28 0 .5-.22.5-.5s-.22-.5-.5-.5-.5.22-.5.5.22.5.5.5z"/><circle cx="14" cy="10" r="1"/><circle cx="14" cy="14" r="1"/><path d="M10 16.5c-.28 0-.5.22-.5.5s.22.5.5.5.5-.22.5-.5-.22-.5-.5-.5z"/><circle cx="10" cy="10" r="1"/><path d="M7 13.5c-.28 0-.5.22-.5.5s.22.5.5.5.5-.22.5-.5-.22-.5-.5-.5z"/><path d="M12 2C6.48 2 2 6.48 2 12s4.48 10 10 10 10-4.48 10-10S17.52 2 12 2zm0 18c-4.42 0-8-3.58-8-8s3.58-8 8-8 8 3.58 8 8-3.58 8-8 8z"/><path d="M7 9.5c-.28 0-.5.22-.5.5s.22.5.5.5.5-.22.5-.5-.22-.5-.5-.5z"/><circle cx="10" cy="14" r="1"/><path d="M10 7.5c.28 0 .5-.22.5-.5s-.22-.5-.5-.5-.5.22-.5.5.22.5.5.5zM14 16.5c-.28 0-.5.22-.5.5s.22.5.5.5.5-.22.5-.5-.22-.5-.5-.5zM17 9.5c-.28 0-.5.22-.5.5s.22.5.5.5.5-.22.5-.5-.22-.5-.5-.5zM17 13.5c-.28 0-.5.22-.5.5s.22.5.5.5.5-.22.5-.5-.22-.5-.5-.5z"/></g></svg>

<?xml version="1.0" encoding="utf-8"?>
<!-- Generator: Adobe Illustrator 19.1.0, SVG Export Plug-In . SVG Version: 6.00 Build 0)  -->
<svg version="1.1" xmlns="http://www.w3.org/2000/svg" xmlns:xlink="http://www.w3.org/1999/xlink" x="0px" y="0px" width="24px"
	 height="24px" viewBox="0 0 24 24" enable-background="new 0 0 24 24" xml:space="preserve">
<g id="Bounding_Boxes">
	<g id="ui_x5F_spec_x5F_header_copy_3">
	</g>
	<path fill="none" d="M0,0h24v24H0V0z"/>
</g>
<g id="Duotone" fill="currentColor">
	<g id="ui_x5F_spec_x5F_header_copy_5">
	</g>
	<g>
		<path d="M14,7.5c0.28,0,0.5-0.22,0.5-0.5c0-0.28-0.22-0.5-0.5-0.5S13.5,6.72,13.5,7C13.5,7.28,13.72,7.5,14,7.5z"/>
		<circle cx="14" cy="10" r="1"/>
		<circle cx="14" cy="14" r="1"/>
		<path d="M10,16.5c-0.28,0-0.5,0.22-0.5,0.5c0,0.28,0.22,0.5,0.5,0.5s0.5-0.22,0.5-0.5C10.5,16.72,10.28,16.5,10,16.5z"/>
		<circle cx="10" cy="10" r="1"/>
		<path d="M7,13.5c-0.28,0-0.5,0.22-0.5,0.5c0,0.28,0.22,0.5,0.5,0.5s0.5-0.22,0.5-0.5C7.5,13.72,7.28,13.5,7,13.5z"/>
		<path d="M12,2C6.48,2,2,6.48,2,12c0,5.52,4.48,10,10,10s10-4.48,10-10C22,6.48,17.52,2,12,2z M12,20c-4.42,0-8-3.58-8-8
			c0-4.42,3.58-8,8-8s8,3.58,8,8C20,16.42,16.42,20,12,20z"/>
		<path d="M7,9.5c-0.28,0-0.5,0.22-0.5,0.5c0,0.28,0.22,0.5,0.5,0.5s0.5-0.22,0.5-0.5C7.5,9.72,7.28,9.5,7,9.5z"/>
		<circle cx="10" cy="14" r="1"/>
		<path d="M10,7.5c0.28,0,0.5-0.22,0.5-0.5c0-0.28-0.22-0.5-0.5-0.5S9.5,6.72,9.5,7C9.5,7.28,9.72,7.5,10,7.5z"/>
		<path d="M14,16.5c-0.28,0-0.5,0.22-0.5,0.5c0,0.28,0.22,0.5,0.5,0.5s0.5-0.22,0.5-0.5C14.5,16.72,14.28,16.5,14,16.5z"/>
		<path d="M17,9.5c-0.28,0-0.5,0.22-0.5,0.5c0,0.28,0.22,0.5,0.5,0.5s0.5-0.22,0.5-0.5C17.5,9.72,17.28,9.5,17,9.5z"/>
		<path d="M17,13.5c-0.28,0-0.5,0.22-0.5,0.5c0,0.28,0.22,0.5,0.5,0.5s0.5-0.22,0.5-0.5C17.5,13.72,17.28,13.5,17,13.5z"/>
	</g>
</g>
</svg>
